X: 1
T: The Milliner's Daughter
R: reel
M: 4/4
L: 1/8
K: Gmaj
G2BG DGBG|A2 (3efg fdcA|G2BG DGBd|1 cAFG AGGF:|2 cAFG AGG2||
dg~g2 dg~g2|df~f2 df~f2|dg~g2 dg~g2|d^cde fd=cA|
dg~g2 bgag|fdde ~f3g|afge fde^c|d2 (3efg fd=cA||


Tune 1409	Setting 14782

